icon-themes/breeze_svg/cmd/32/behindobject.svg

<svg viewBox="0 0 32 32" xmlns="http://www.w3.org/2000/svg"><path d="m4 4v6 1h6v-1h-5v-5h5v-1h-5zm18 0v1h5v5h-5v1h6v-1-6h-1zm-14 3v1h16v-1zm7.5 6v10.085938l-3.792969-3.792969-.707031.707031 4 4 1 1 1-1 4-4-.707031-.707031-3.792969 3.792969v-10.085938zm-11.5 14v1h24v-1z" fill="#4d4d4d"/></svg>

<svg xmlns="http://www.w3.org/2000/svg" viewBox="0 0 32 32">
 <path 
     style="fill:#4d4d4d" 
     d="M 4 4 L 4 10 L 4 11 L 10 11 L 10 10 L 5 10 L 5 5 L 10 5 L 10 4 L 5 4 L 4 4 z M 22 4 L 22 5 L 27 5 L 27 10 L 22 10 L 22 11 L 28 11 L 28 10 L 28 4 L 27 4 L 22 4 z M 8 7 L 8 8 L 24 8 L 24 7 L 8 7 z M 15.5 13 L 15.5 23.085938 L 11.707031 19.292969 L 11 20 L 15 24 L 16 25 L 17 24 L 21 20 L 20.292969 19.292969 L 16.5 23.085938 L 16.5 13 L 15.5 13 z M 4 27 L 4 28 L 28 28 L 28 27 L 4 27 z "
     />
</svg>
